Sources/FrostedUI/Resources/Icons.xcassets/cursorOutline32.imageset/cursor-outline-32.svg

<svg width="32" height="32" viewBox="0 0 32 32" fill="none" xmlns="http://www.w3.org/2000/svg" data-fui-icon="true">
  <path
    d="M3.65955 6.63853C3.00321 4.78756 4.78756 3.00321 6.63853 3.65955L27.7416 11.1426C29.7537 11.8561 29.8304 14.6732 27.8602 15.4952L21.4635 18.1638L26.8165 23.5168C27.7278 24.428 27.7278 25.9054 26.8165 26.8166C25.9053 27.7278 24.4279 27.7278 23.5167 26.8166L18.1637 21.4636L15.4953 27.8602C14.6733 29.8303 11.8561 29.7537 11.1426 27.7416L3.65955 6.63853Z"
    stroke="currentColor"
    stroke-width="1.5"
    stroke-linejoin="round"
  />
</svg>

<svg xmlns="http://www.w3.org/2000/svg" width="32" height="32" fill="none" data-fui-icon="true" viewBox="0 0 32 32"><path stroke="currentColor" stroke-linejoin="round" stroke-width="1.5" d="M3.66 6.639c-.657-1.851 1.128-3.636 2.979-2.98l21.103 7.484c2.012.713 2.088 3.53.118 4.352l-6.396 2.669 5.353 5.353a2.333 2.333 0 1 1-3.3 3.3l-5.353-5.353-2.669 6.396c-.822 1.97-3.639 1.894-4.352-.118z"/></svg>
